X: 1
T: Peter Davidson's Reel
C: by Ronnie Cooper, as played by Trevor Hunter "From Shetland"
R: reel
C: arr. T. Traub 8-22-2004
N: Taught by Jenna Reid in BSFC workshop 2021-12-20
M: 4/4
L: 1/8
K: D
|: A,2 | "D"D2 FD ADFA | dfec dBAF | "Em"BEEF GABc | "A"dfed (3cde Ac || "D"dDDE FDFA |
dfec "D7"dBAF | "G"GABG "D"AGFD | "A7"EDCE "D"D2 :| Ac | "D"d2 Ad fage | fdec dBAF |
"Em"BEEF GABc | "E7"dfed "A"(3cde Ac || "D"d2 Ad fage | fdec dBAF | "G"GABG "D"AGFD |
"A7"EDCE "D"D2  |]| Ac | "D"d2 Ad fage | fdec dBAF | "Em"BEEF GABc | "E7"dfed "A"(3cde Ac ||
"D"dDDE FDFA | dfec "D7"dBAF | "G"GABG "D"AGFD | "A7"EDCE "D"D2  |]
